components/ui-node-icon/src/recipe/recipe.small.svg

<svg width="16" height="16" viewBox="0 0 16 16" fill="none" xmlns="http://www.w3.org/2000/svg">
  <path fill-rule="evenodd" clip-rule="evenodd" d="M7.77637 1.83849C7.91714 1.76811 8.08282 1.76811 8.22359 1.83849L13.9379 4.69563C14.1073 4.78033 14.2143 4.95346 14.2143 5.14285C14.2143 5.33223 14.1073 5.50537 13.9379 5.59006L8.22359 8.44721C8.08282 8.51759 7.91714 8.51759 7.77637 8.44721L2.06209 5.59006C1.89269 5.50537 1.78569 5.33223 1.78569 5.14285C1.78569 4.95346 1.89269 4.78033 2.06209 4.69563L7.77637 1.83849ZM3.40373 5.14285L7.99998 7.44097L12.5962 5.14285L7.99998 2.84472L3.40373 5.14285ZM1.83848 7.77638C1.96197 7.5294 2.26231 7.42928 2.5093 7.55278L7.99998 10.2981L13.4907 7.55278C13.7376 7.42928 14.038 7.5294 14.1615 7.77638C14.285 8.02337 14.1849 8.32371 13.9379 8.44721L8.22359 11.3043C8.08282 11.3747 7.91714 11.3747 7.77637 11.3043L2.06209 8.44721C1.8151 8.32371 1.71498 8.02337 1.83848 7.77638ZM1.83848 10.6335C1.96197 10.3865 2.26231 10.2864 2.5093 10.4099L7.99998 13.1553L13.4907 10.4099C13.7376 10.2864 14.038 10.3865 14.1615 10.6335C14.285 10.8805 14.1849 11.1809 13.9379 11.3043L8.22359 14.1615C8.08282 14.2319 7.91714 14.2319 7.77637 14.1615L2.06209 11.3043C1.8151 11.1809 1.71498 10.8805 1.83848 10.6335Z" fill="currentColor"/>
</svg>

<svg xmlns="http://www.w3.org/2000/svg" width="16" height="16" fill="none" viewBox="0 0 16 16">
  <path fill="currentColor" fill-rule="evenodd" d="M7.776 1.838a.5.5 0 0 1 .448 0l5.714 2.858a.5.5 0 0 1 0 .894L8.224 8.447a.5.5 0 0 1-.448 0L2.062 5.59a.5.5 0 0 1 0-.894l5.714-2.858ZM3.404 5.143 8 7.44l4.596-2.298L8 2.845 3.404 5.143ZM1.838 7.776a.5.5 0 0 1 .671-.223L8 10.298l5.49-2.745a.5.5 0 0 1 .448.894l-5.714 2.857a.5.5 0 0 1-.448 0L2.062 8.447a.5.5 0 0 1-.224-.67Zm0 2.857a.5.5 0 0 1 .671-.223L8 13.155l5.49-2.745a.5.5 0 0 1 .448.894l-5.714 2.857a.5.5 0 0 1-.448 0l-5.714-2.857a.5.5 0 0 1-.224-.67Z" clip-rule="evenodd"/>
</svg>
